static/assets/img/icons/theme/design/stamp.svg

<svg height="24" viewBox="0 0 24 24" width="24" xmlns="http://www.w3.org/2000/svg"><g fill="none" fill-rule="evenodd"><path d="m0 0h24v24h-24z" opacity="0"/><g fill="#000"><path d="m12.9863016 8.83409843c.0090097.05396025.0136984.10938336.0136984.16590157v2h4c1.1045695 0 2 .8954305 2 2v3h-14v-3c0-1.1045695.8954305-2 2-2h4v-2c0-.05651821.0046887-.11194132.0136984-.16590157-1.17234239-.40794379-2.0136984-1.5227665-2.0136984-2.83409843 0-1.65685425 1.3431458-3 3-3s3 1.34314575 3 3c0 1.31133193-.841356 2.42615464-2.0136984 2.83409843z"/><rect height="2" opacity=".3" rx="1" width="14" x="5" y="18"/></g></g></svg>

<svg width="24px" height="24px" viewBox="0 0 24 24" version="1.1" xmlns="http://www.w3.org/2000/svg" xmlns:xlink="http://www.w3.org/1999/xlink">
    <title>Icon For Stamp</title>
    <g stroke="none" stroke-width="1" fill="none" fill-rule="evenodd">
        <rect opacity="0" x="0" y="0" width="24" height="24"></rect>
        <path d="M12.9863016,8.83409843 C12.9953113,8.88805868 13,8.94348179 13,9 L13,11 L17,11 C18.1045695,11 19,11.8954305 19,13 L19,16 L5,16 L5,13 C5,11.8954305 5.8954305,11 7,11 L11,11 L11,9 C11,8.94348179 11.0046887,8.88805868 11.0136984,8.83409843 C9.84135601,8.42615464 9,7.31133193 9,6 C9,4.34314575 10.3431458,3 12,3 C13.6568542,3 15,4.34314575 15,6 C15,7.31133193 14.158644,8.42615464 12.9863016,8.83409843 Z" fill="#000000"></path>
        <rect fill="#000000" opacity="0.3" x="5" y="18" width="14" height="2" rx="1"></rect>
    </g>
</svg>
